src/main/resources/static/assets/img/arrowBack.svg

<svg width="41" height="32" viewBox="0 0 41 32" fill="none" xmlns="http://www.w3.org/2000/svg">
<path d="M37.7084 13.8333H8.55254L17.4763 4.38667C17.8936 3.9442 18.0943 3.37376 18.0344 2.80084C17.9744 2.22792 17.6587 1.69944 17.1567 1.33167C16.6547 0.963907 16.0074 0.786973 15.3574 0.839796C14.7073 0.892618 14.1077 1.17087 13.6905 1.61334L1.39879 14.6133C1.31609 14.7167 1.24214 14.8254 1.17754 14.9383C1.17754 15.0467 1.17754 15.1117 1.00546 15.22C0.89403 15.4684 0.835688 15.7329 0.833374 16C0.835688 16.2671 0.89403 16.5316 1.00546 16.78C1.00546 16.8883 1.00546 16.9533 1.17754 17.0617C1.24214 17.1746 1.31609 17.2833 1.39879 17.3867L13.6905 30.3867C13.9216 30.6313 14.211 30.8279 14.5382 30.9628C14.8654 31.0976 15.2222 31.1672 15.5834 31.1667C16.1578 31.1677 16.7144 30.9914 17.1567 30.6683C17.4056 30.4865 17.6114 30.2631 17.7622 30.011C17.913 29.7589 18.006 29.4831 18.0357 29.1993C18.0653 28.9155 18.0312 28.6293 17.9352 28.3572C17.8392 28.0851 17.6833 27.8323 17.4763 27.6133L8.55254 18.1667H37.7084C38.3604 18.1667 38.9856 17.9384 39.4467 17.5321C39.9077 17.1257 40.1667 16.5746 40.1667 16C40.1667 15.4254 39.9077 14.8743 39.4467 14.4679C38.9856 14.0616 38.3604 13.8333 37.7084 13.8333Z" fill="#F6DCBF"/>
</svg>

<?xml version="1.0" encoding="utf-8"?>
<!-- Generator: Adobe Illustrator 24.0.0, SVG Export Plug-In . SVG Version: 6.00 Build 0)  -->
<svg version="1.1" id="Layer_1" xmlns="http://www.w3.org/2000/svg" xmlns:xlink="http://www.w3.org/1999/xlink" x="0px" y="0px"
	 viewBox="0 0 41 32" style="enable-background:new 0 0 41 32;" xml:space="preserve">
<style type="text/css">
	.st0{fill:#FFFFFF;}
</style>
<path class="st0" d="M37.7,13.8H8.6l8.9-9.4c0.4-0.4,0.6-1,0.6-1.6c-0.1-0.6-0.4-1.1-0.9-1.5C16.7,1,16,0.8,15.4,0.8
	c-0.7,0.1-1.2,0.3-1.7,0.8l-12.3,13c-0.1,0.1-0.2,0.2-0.2,0.3c0,0.1,0,0.2-0.2,0.3c-0.1,0.2-0.2,0.5-0.2,0.8c0,0.3,0.1,0.5,0.2,0.8
	c0,0.1,0,0.2,0.2,0.3c0.1,0.1,0.1,0.2,0.2,0.3l12.3,13c0.2,0.2,0.5,0.4,0.8,0.6c0.3,0.1,0.7,0.2,1,0.2c0.6,0,1.1-0.2,1.6-0.5
	c0.2-0.2,0.5-0.4,0.6-0.7c0.2-0.3,0.2-0.5,0.3-0.8c0-0.3,0-0.6-0.1-0.8c-0.1-0.3-0.3-0.5-0.5-0.7l-8.9-9.4h29.2
	c0.7,0,1.3-0.2,1.7-0.6c0.5-0.4,0.7-1,0.7-1.5c0-0.6-0.3-1.1-0.7-1.5C39,14.1,38.4,13.8,37.7,13.8z"/>
</svg>
